X:1
T: A Quickstep by the Duke of Gordon
C:
R:Jig
Q:180
K:Bb
M:6/8
L:1/16
|:Bc|d2B2d2 d2B2d2|c2A2F2 F4Bc|d2B2d2 d2B2d2|c6 F4Bc|
d2B2d2 d2B2d2|c2A2F2 F4B2|G2e2d2 c2B2A2|B6B4:|
|:de|f2d2B2 f2d2B2|g2a2b2 f6|f2d2B2 f2d2B2|c2A2F2 F4de|
f2d2B2 f2d2B2|g2a2b2 f4e2|d2f2B2 c2e2A2|B6 B4:|
